!!!SOCIAL_FUNCTION:	songs of the drum-presentation ceremony
!!!PDT:	1913
!!!OTL: No_73_Second_Song_of_the_Dog_Feast.krn
!!!REG: Great_Lakes
!!!LANG: Non-Tone
!!!LING_GROUP: Algonquin
**kern	**kern
*staff2	*staff1
=1-	=1-
*clefF4	*clefF4
*k[]	*k[]
*M2/4	*M2/4
12GG^/	4e\
12r	.
12GG/	.
12GG^/	16e\LK
.	8.d\J
12r	.
12GG/	.
=2	=2
2r	8e\L
.	8d\J
.	8.d\L
.	16d\Jk
=3||	=3||
*M3/4	*M3/4
2.r	(2d\
.	12d\L)
.	12A\
.	12A\J
=4||	=4||
*M2/4	*M2/4
2r	4e\
.	16e\LK
.	8.d\J
=5	=5
2r	8e\L
.	8d\J
.	8.d\L
.	16d\Jk
=6||	=6||
*M3/4	*M3/4
2.r	4..d\
.	16d\
.	4d\
=7||	=7||
*M2/4	*M2/4
2r	16d\LK
.	8.c\J
.	16c\LK
.	8.A\J
=8	=8
2r	8c\L
.	8A\J
.	8.A\L
.	16A\Jk
=9||	=9||
*M3/4	*M3/4
2.r	4..A\
.	16A\
.	4A\
=10||	=10||
*M2/4	*M2/4
2r	16A\LK
.	8.G\J
.	16G\LK
.	8.E\J
=11	=11
2r	12G\L
.	12E\
.	12D\J
.	8.D\L
.	16D\Jk
=12	=12
2r	2D\
=13	=13
2r	16D/LK
.	8.C/J
.	16C/LK
.	8.AA/J
=14	=14
2r	8C/L
.	8AA/J
.	8.AA/L
.	16AA/Jk
=15	=15
2r	[2AA/
=16	=16
2r	2AA/]
==	==
*-	*-
